gtk/icons/scalable/actions/info-outline-symbolic.svg

<svg width='16' height='16'
     xmlns:gpa='https://www.gtk.org/grappa'
     gpa:version='1'
     gpa:keywords='info information'
     gpa:state='0'>
  <path d='M 8 5 L 8 5.01000023 M 7 8 L 8 8 L 8 11 M 15 8 C 15 11.8659935, 11.8659935 15, 8 15 C 4.13400698 15, 1 11.8659935, 1 8 C 1 4.13400698, 4.13400698 1, 8 1 C 11.8659935 1, 15 4.13400698, 15 8'
        id='path0'
        stroke-width='2'
        stroke-linecap='round'
        stroke-linejoin='round'
        stroke='rgb(0,0,0)'
        fill='none'
        class='foreground-stroke transparent-fill'/>
</svg>

<svg xmlns="http://www.w3.org/2000/svg" width="16" height="16">
  <path fill="none" d="M8 5v.01M7 8h1v3m7-3a7 7 0 0 1-7 7 7 7 0 0 1-7-7 7 7 0 0 1 7-7 7 7 0 0 1 7 7" class="foreground-stroke transparent-fill"/>
</svg>
